!!!COM: Scarlatti, Domenico
!!!CDT: 1685///-1757///
!!!OTL: Sonata in A Major, K.320, L.341
!!!SCT: K. 320
!!!SCT: L. 341
**kern	**kern	**dynam
*staff2	*staff1	*staff1/2
*Icemba	*Icemba	*Icemba
*>[A,A,B,B]	*>[A,A,B,B]	*>[A,A,B,B]
*>norep[A,B]	*>norep[A,B]	*>norep[A,B]
*>A	*>A	*>A
*clefF4	*clefG2	*clefG2
*k[f#c#g#]	*k[f#c#g#]	*k[f#c#g#]
*A:	*A:	*A:
*M2/2	*M2/2	*M2/2
*MM232	*MM232	*MM232
=1-	=1-	=1-
1r	(4.aa\	f
.	8ee\)	.
.	(4aa\	.
.	4ee\)	.
=2	=2	=2
1r	(8aa\L	.
.	8ee\	.
.	8cc#\	.
.	8a\J	.
.	8e/L	.
.	8a/	.
.	8cc#/	.
.	8ee/J	.
=3	=3	=3
1r	8dd/L	.
.	8b/	.
.	8g#/	.
.	8e/J)	.
.	(8e/L	.
.	8g#/	.
.	8b/	.
.	8dd/J	.
=4	=4	=4
(4.a\	4cc#\	.
.	4ee\)	.
8e\)	.	.
(4.a\	(4cc#\	.
.	4ee\)	.
8e\)	.	.
=5	=5	=5
(8a\L	2cc#\	.
8e\	.	.
8c#\	.	.
8A\J	.	.
8E\L	4r	.
8A\	.	.
8c#\	4ee'\	.
8e\J	.	.
=6	=6	=6
8d\L	2b\	.
8B\	.	.
8G#\	.	.
8E\J)	.	.
(8E\L	4r	.
8G#\	.	.
8B\	4dd'\	.
8d\J	.	.
=7	=7	=7
4c#\)	8r	.
.	(8ee\L	.
(4c#\	8a\	.
.	8ee\J	.
4d\	8a\L	.
.	8ff#\	.
4B\	8b\	.
.	8gg#\J	.
=8	=8	=8
4A\)	8cc#\L	.
.	8aa\)	.
(4c#\	(8a\	.
.	8ee\J	.
4d\	8a\L	.
.	8ff#\	.
4B\)	8b\	.
.	8gg#\J	.
=9	=9	=9
8r	4aa'\)	.
(8e\L	.	.
8A\	(2ee\	.
8e\J	.	.
8A\L	.	.
8f#\	.	.
8B\	4dd\	.
8g#\J	.	.
=10	=10	=10
8c#\L	4cc#\)	.
8a\)	.	.
(8A\	(2ee\	.
8e\J	.	.
8A\L	.	.
8f#\	.	.
8B\	4dd\	.
8g#\J	.	.
=11	=11	=11
2A\)	8cc#\L)	.
.	(8a\	.
.	8cc#\	.
.	8ee\J	.
4r	8aa\L	.
.	8ee\	.
4a'\	8aa\	.
.	8ccc#\J	.
=12	=12	=12
2g#\	8bb\L	.
.	8gg#\	.
.	8ee\	.
.	8b\J	.
4r	8g#\L	.
.	8b\	.
4e'\	8gg#\	.
.	8bb\J	.
=13	=13	=13
2f#'\	8aa\L	.
.	8ff#\	.
.	8dd#\	.
.	8a\J	.
4r	8f#\L	.
.	8a\	.
4d#'\	8ff#\	.
.	8aa\J	.
=14	=14	=14
(8E\L	2gg#\)	>
8e\	.	.
8B\	.	.
8e\J	.	.
8G#\L	4r	.
8B\	.	.
8E\	4bb'\	mf
8e\J	.	.
=15	=15	=15
8A\L	4cc#'\	.
8c#\	.	.
8F#\	(2aa\	.
8A\J	.	.
8D#\L	.	.
8F#\	.	.
8BB\	8gg#\L	.
8D#\J	8ff#\J	.
=16	=16	=16
8E\L)	2gg#\)	.
(8e\	.	.
8B\	.	.
8e\J	.	.
8G#\L	4r	.
8B\	.	.
8E\	4bb'\	p
8e\J	.	.
=17	=17	=17
8A\L	4cc#'\	.
8c#\	.	.
8F#\	(2aa\	.
8A\J	.	.
8D#/L	.	.
8F#/	.	.
8BB/	8gg#\L	.
8D#/J	8ff#\J	.
=18	=18	=18
2E\)	8gg#\L	<
.	8bb\	.
.	8dd#\	.
.	8ff#\J	.
4r	8ee\L	.
.	8gg#\	.
4G#'\	8b\	.
.	8dd#\J	.
=19	=19	=19
(2A\	8cc#\L	.
.	8ee\	.
.	8a\	.
.	8cc#\J	.
2AA/	8f#/L	.
.	8a/	.
.	8d#/	.
.	8f#/J	.
=20	=20	=20
2BB/)	2B/)	f
(8B\L	2r	.
8A\	.	.
8Gn\	.	.
8F#\J)	.	.
=21	=21	=21
(2EE/	8r	.
.	(8bb\L	.
.	8ggn\	.
.	8ee\J	.
2E\)	8b/L	.
.	8gn/	.
.	8e/	.
.	8b/J	.
=22	=22	=22
(8AA/L	2ccn\)	.
8Cn/	.	.
8E/	.	.
8A/J	.	.
*clefG2	*	*
8cn/L	2r	.
8e/	.	.
8a/	.	.
8ccn/J)	.	.
*clefF4	*	*
=23	=23	=23
(2d#\	8r	.
.	(8cccn\L	.
.	8aa\	.
.	8ff#\J	.
2B\	8dd#\L	.
.	8b\	.
.	8ff#\	.
.	8aa\J	.
=24	=24	=24
2E\)	8ggn\L	.
.	8bb\	.
.	8gg\	.
.	8ee\J	.
2r	8b/L	.
.	8gn/	.
.	8e/	.
.	8b/J	.
=25	=25	=25
(8AA\L	2ccn\)	.
8Cn\	.	.
8E\	.	.
8A\J	.	.
*clefG2	*	*
8cn/L	2r	.
8e/	.	.
8a/	.	.
8ccn/J)	.	.
*clefF4	*	*
=26	=26	=26
(2d#\	8r	.
.	(8cccn\L	.
.	8aa\	.
.	8ff#\J	.
2B\	8dd#\L	.
.	8b\)	.
.	(8ff#\	.
.	8aa\J	.
=27	=27	=27
2E\)	8ggn\L	.
.	8bb\	.
.	8dd#\	.
.	8ff#\J	.
4r	8ee\L	.
.	8gg\	.
4Gn'\	8b\	.
.	8ddn\J	.
=28	=28	=28
(2A\	8ccn\L	.
.	8ee\	.
.	8a\	.
.	8cc\J	.
2AA/	8f#/L	.
.	8a/	.
.	8d#/	.
.	8f#/J	.
=29	=29	=29
4.BB/)	4.B/)	.
(8B\	(8d#/ 8b/	f
8BB\L	4e'/) 4ccn'/	.
8A\	.	.
8BB\	4f#'/ 4dd#'/	.
8A\J	.	.
=30	=30	=30
8BB\L	4gn'\ 4ee'\	.
8Gn\	.	.
8BB\	4a'\ 4ff#'\	.
8F#\J	.	.
!	!(aaq/	!.
4BB'/)	4b\ (4ggn\)	.
4BB'\ 4A#'\	8ff#\L	.
.	8ee\J	.
=31	=31	=31
4.BB\ 4.B\	4.dd#\)	.
(8B\	(8d#/ 8b/	p
8BB\L	4e'/) 4ccn'/	<
8An\	.	.
8BB\	4f#'/ 4dd#'/	.
8A\J	.	.
=32	=32	=32
8BB\L	4gn'\ 4ee'\	.
8Gn\	.	.
8BB\	4a'\ 4ff#'\	.
8F#\J	.	.
!	!(aaq/	!.
4BB'/	4b\ (4ggn\)	.
4BB'\ 4A#'\)	8ff#\L	.
.	8ee\J	.
=33	=33	=33
4.BB\ 4.B\	4dd#\)	f
.	(4.bb\	.
8BB\ (8B\	.	.
4C#'\ 4An'\)	.	.
.	8aa\L	.
4D#'\ 4B'\	8ggn\	.
.	8ff#\J	.
=34	=34	=34
4E'\ 4cn'\	8ee\L	.
.	8ggn\	.
4F#'\ 4d#'\	8aa\	.
.	8dd#\J	.
4Gn'\ 4e'\	8bb\L	.
.	8gg\	.
4AA'\ 4A'\	8ff#\	.
.	8ee\J	.
=35	=35	=35
4.BB\ 4.B\	4dd#\)	.
.	(4.bb\	.
8BB\ (8B\	.	.
4C#'\ 4An'\)	.	.
.	8aa\L	.
4D#'\ 4B'\	8ggn\	.
.	8ff#\J	.
=36	=36	=36
4E'\ 4cn'\	8ee\L	.
.	8ggn\	.
4F#'\ 4d#'\	8aa\	.
.	8dd#\J	.
4Gn'\ 4e'\	8bb\L	.
.	8gg\	.
4AA'\ 4A'\	8ff#\	.
.	8ee\J	.
=37	=37	=37
4.BB\ 4.B\	8dd#\L	.
.	8ff#\J	.
.	4.a/)	.
(8c#\	.	.
8d#\L	.	.
8f#\	(8cc#/L	.
8B\	8b/	.
8d#\J	8a/J	.
=38	=38	=38
8E\L	4.g#/)	.
8e\	.	.
8G#\	.	.
8e\J	(8bb\	.
8A\L	[2ff#\)	.
8g#\	.	.
8f#\	.	.
8e\J	.	.
=39	=39	=39
8d#\L	8ff#\L]	p
8B\	(8aa\	<
8G#\	8gg#\	.
8e\J	8bb\J	.
8A\L	[2ff#\)	.
8g#\	.	.
8f#\	.	.
8e\J	.	.
=40	=40	=40
8d#\L	8ff#\L]	.
8B\	(8aa\	.
8e\	8gg#\	.
8A\J	8ff#\J	.
4BB'/)	8gg#\L	.
.	8bb\	.
(4B\	8ee\	.
.	8dd#\J	.
=41	=41	=41
4c#\	8ee'\)	f
.	(4ccc#\	.
4A\	.	.
.	4aa\	.
4B\	.	.
.	4ff#\	.
4A\	.	.
.	8dd#\	.
=42	=42	=42
4G#\)	8ee'\)	.
.	(4ccc#\	.
(4A\	.	.
.	4aa\	.
4AA/	.	.
.	4ff#\	.
4A\)	.	.
.	8dd#\	.
=43	=43	=43
4r	8gg#\L	.
.	8ee\	.
4GG#'\ 4G#'\	8b\	.
.	8g#\J	.
4AA'\ 4A'\	8f#/L	.
.	8e/)	.
4BB'\ 4B'\	(8e/	.
.	8d#/J)	.
=44	=44	=44
4r	(8gg#\L	.
.	8ee\	.
4GG#'\ 4G#'\	8b\	.
.	8g#\J	.
4AA'\ 4A'\	8f#/L	.
.	8e/)	.
4BB'\ 4B'\	(8e/	.
.	8d#/J)	.
=45	=45	=45
*	*^	*
4r	(8bb\L	2r	.
.	8gg#\	.	.
4GG#'\ 4G#'\	8ee\)	.	.
.	8g#\ (8b\J	.	.
4AA'\ 4A'\	8f#\	4a/	.
.	4e\	.	.
4BB'\ 4B'\	.	8g#/L	.
.	8d#\	8f#/J	.
*	*v	*v	*
=46	=46	=46
1EE 1E	1e)	.
=47:|!|:	=47:|!|:	=47:|!|:
*>B	*>B	*>B
8r	1ee	f
(8e\L	.	.
8g#\	.	.
8f#\J	.	.
8e\L	.	.
8d\	.	.
8c#\	.	.
8B\J	.	.
=48	=48	=48
8A#\L	2ee\	<
8Gn\	.	.
8F#\	.	.
8E\J	.	.
8D/L	2ee\	.
8C#/	.	.
8BB/	.	.
8AA#/J	.	.
=49	=49	=49
1BB)	(8dd\L	mf
.	8ff#\	.
.	8b\	.
.	8cc#\J	.
.	8dd\L	.
.	8bb\	.
.	8b\	.
.	8cc#\J	.
=50	=50	=50
8r	1dd)	p
(8d\L	.	.
8f#\	.	.
8e\J	.	.
8d\L	.	.
8c#\	.	.
8B\	.	.
8A\J	.	.
=51	=51	=51
8G#\L	2dd\	<
8F#\	.	.
8E\	.	.
8D\J	.	.
8Cn/L	2dd\	.
8BB/	.	.
8AA/	.	.
8GG#/J	.	.
=52	=52	=52
1AA)	(8ccn\L	mf
.	8ee\	.
.	8a\	.
.	8b\J	.
.	8cc\L	.
.	8aa\	.
.	8a\	.
.	8b\J	.
=53	=53	=53
8r	1ccn)	p
(8cn\L	.	.
8e\	.	.
8d\J	.	.
8c\L	.	.
8B\	.	.
8A\	.	.
8Gn\J	.	.
=54	=54	=54
8F#\L	2ccn\	.
8E\	.	.
8D\	.	.
8Cn\J	.	.
8BB/L	2cc\	<
8AA/	.	.
8GGn/	.	.
8FF#/J	.	.
=55	=55	=55
1GGn)	(8b\L	.
.	8dd\	.
.	8gn\	.
.	8a\J	.
.	8b\L	.
.	8ggn\)	.
.	(8g\	.
.	8a\J	.
=56	=56	=56
(4gn\	8b\L	.
.	8ccn\	.
8fn\L	8dd\	.
8e\J	8ee\J	.
4d\	8ffn\L	.
.	8gg#\	.
8cn\L	8aa\	.
8B\J	8bb\J	.
=57	=57	=57
4A'\)	8cccn\L	f
.	8ffn\	.
4Gn'\ 4e'\	8ee\	.
.	8bb\J	.
4Fn'\ 4d'\	8aa\L	.
.	8dd\	.
4E'\ 4cn'\	8ccn\	.
.	8ggn\J	.
=58	=58	=58
4D'\ 4B'\	8ffn\L	.
.	8b\	.
4Cn'\ 4A'\	8a\	.
.	8ee\J	.
4BB'\ 4G#'\	8dd\L	.
.	8g#\	.
4AA'\ 4A'\	8a\	.
.	8ccn\J	.
=59	=59	=59
4.E^\	4.b\)	.
(8e\	8g#\ (8ee\	f
8E\L	4a'\ 4ffn'\)	.
8d\	.	.
8E\	4b'\ 4gg#'\	.
8d\J	.	.
=60	=60	=60
8E\L	4ccn'\ 4aa'\	.
8cn\	.	.
8E\	4dd'\ 4bb'\	.
8B\J	.	.
!	!(dddq/	!.
4E'\)	4ee\ (4cccn\)	.
4E\ 4d#\	8bb\L	.
.	8aa\J	.
=61	=61	=61
4.E^\ 4.e^\	4.gg#\)	.
(8e\	8g#\ (8ee\	p
8E\L	4a'\ 4ffn'\)	<
8dn\	.	.
8E\	4b'\ 4gg#'\	.
8d\J	.	.
=62	=62	=62
8E\L	4ccn'\ 4aa'\	.
8cn\	.	.
8E\	4dd'\ 4bb'\	.
8B\J	.	.
!	!(dddq/	!.
4E'\)	4ee\ (4cccn\)	.
4E'\ 4d#'\	8bb\L	.
.	8aa\J	.
=63	=63	=63
4.E^\ 4.e^\	4gg#\)	f
.	(4.ee^\	.
(8EE/ 8E/	.	.
4FF#'/) 4Dn'/	.	.
.	8dd\L	.
4GG#'/ 4E'/	8ccn\	.
.	8b\J	.
=64	=64	=64
4AA'/ 4Fn'/	8a\L	.
.	8ccn\	.
4BB'/ 4G#'/	8dd\	.
.	8g#\J	.
4Cn'\ 4A'\	8ee\L	.
.	8cc\	.
4D'\	8b\	.
.	8a\J	.
=65	=65	=65
4.E^\	4g#'/)	.
.	(4.ee^\	.
(8EE/ 8E/	.	.
4FF#'/) 4D'/	.	.
.	8dd\L	.
4GG#'/ 4E'/	8ccn\	.
.	8b\J	.
=66	=66	=66
4AA'/ 4Fn'/	8a\L	.
.	8ccn\	.
4BB'/ 4G#'/	8dd\	.
.	8g#\J	.
4Cn'\ 4A'\	8ee\L	.
.	8cc\	.
4D'\	8b\	.
.	8a\J	.
=67	=67	=67
(2E\	8g#\L)	.
.	(8bb\	.
.	8gg#\	.
.	8ffn\J	.
2EE/	8dd\L	.
.	8b\	.
.	8g#\	.
.	8dd\J	.
=68	=68	=68
1AA)	8ccn\L	.
.	8aa\	.
.	8ee\	.
.	8cc\J	.
.	8a/L	.
.	8e/	.
.	8cn/	.
.	8e/J	.
=69	=69	=69
(8DD/L	1fn)	.
8FFn/	.	.
8AA/	.	.
8D/J	.	.
8Fn\L	.	.
8A\	.	.
8d\	.	.
8fn\J)	.	.
=70	=70	=70
(2G#\	8r	.
.	(8bb\L	.
.	8gg#\	.
.	8ffn\J	.
2E\	8dd\L	.
.	8b\	.
.	8g#\	.
.	8dd\J	.
=71	=71	=71
2A\	8ccn\L	.
.	8aa\	.
.	8ee\	.
.	8cc\J	.
2AA/)	8a/L	.
.	8e/	.
.	8cn/	.
.	8e/J	.
=72	=72	=72
(8DD/L	1fn)	.
8FFn/	.	.
8AA/	.	.
8D/J	.	.
8Fn\L	.	.
8A\	.	.
8d\	.	.
8fn\J)	.	.
=73	=73	=73
(2G#\	8r	.
.	(8bb\L	.
.	8gg#\	.
.	8ffn\J	.
2E\	8dd\L	.
.	8b\	.
.	8g#\	.
.	8dd\J	.
=74	=74	=74
4AA'/)	8cc#/L	.
.	8ee/)	.
4C#'/	(8e/	p
.	8g#/J	<
4D'\	8f#/L	.
.	8a/	.
4E'\	8g#/	.
.	8b/J	.
=75	=75	=75
4F#'\	8a\L	.
.	8cc#\	.
4G#'\	8b\	.
.	8dd\J	.
4A'\	8cc#\L	.
.	8ee\	.
4B'\	8dd\	.
.	8ff#\J	.
=76	=76	=76
(4C#/	8ee\L	.
.	8aa\	.
4D\	8ff#\	.
.	8dd\J	.
4E'\)	8cc#/L	.
.	8a/	.
4D'\	8g#/	.
.	8b/J	.
=77	=77	=77
(8C#\L	4a'/)	f
8A\	.	.
8C#\	4ee'\	.
8A\J	.	.
8D\L	2b\	.
8c#\	.	.
8B\	.	.
8A\J	.	.
=78	=78	=78
8G#\L	8b\L	.
8E\	8dd\	.
8A\	8cc#\	.
8C#\J	8ee\J	.
8D\L	([2b\	.
8c#\	.	.
8B\	.	.
8A\J	.	.
=79	=79	=79
8G#\L	8b\L]	.
8E\	8dd\	.
8A\	8cc#\	.
8D\J	8b\J	.
4E'\)	8cc#'\)	.
.	(4aa\	.
(4D\	.	.
.	8gg#\	.
=80	=80	=80
4C#/	8aa\L	.
.	8ee\	.
4D\	8ff#\	.
.	[8a\J)	.
4E\	8a/]	.
.	(4ee\	.
4D\	.	.
.	8g#/	.
=81	=81	=81
4C#/	8a\L	.
.	8aa\	.
4D\	8ff#\	.
.	[8dd\J	.
4E\	8dd\]	.
.	4b\	.
4D\	.	.
.	8g#/	.
=82	=82	=82
4C#/	8a'\L)	.
.	(8aa\	.
4D\	8ff#\	.
.	[8dd\J	.
4E\	8dd\]	.
.	4b\	.
4D\	.	.
.	8g#/)	.
=83	=83	=83
4C#/	(8aa\L	.
.	8ee\	.
4D\	(8ff#\)	.
.	[8a^\J	.
4E'\)	8a/L]	.
.	8b/	.
4EE'/	8a/	.
.	8g#/J	.
=84	=84	=84
1AA^	1a)	.
==:|!	==:|!	==:|!
*-	*-	*-
!!!ENC: Craig Stuart Sapp
!!!END: 2004/10/30/
